icons/fill-new-media-video-pause-stop-circle.svg

<svg xmlns="http://www.w3.org/2000/svg" width="32px" height="32px" viewBox="0 0 32 32" version="1.1">
    <title>fill-new-media-video-pause-stop-circle</title>
    <g id="fill-new-media-video-pause-stop-circle" stroke-width="1" fill-rule="evenodd">
        <path d="M16,2 C19.9587,2.104 23.2557,3.474 25.891,6.109 C28.5263,8.744 29.896,12.041 30,16 C29.896,19.959 28.5263,23.256 25.891,25.891 C23.2557,28.526 19.9587,29.896 16,30 C12.0413,29.896 8.74433,28.526 6.109,25.891 C3.47367,23.256 2.104,19.959 2,16 C2.104,12.041 3.47367,8.744 6.109,6.109 C8.74433,3.474 12.0413,2.104 16,2 Z M13,11 C12.4477153,11 12,11.4477153 12,12 L12,20 C12,20.5522847 12.4477153,21 13,21 C13.5522847,21 14,20.5522847 14,20 L14,12 C14,11.4477153 13.5522847,11 13,11 Z M19,11 C18.4477153,11 18,11.4477153 18,12 L18,20 C18,20.5522847 18.4477153,21 19,21 C19.5522847,21 20,20.5522847 20,20 L20,12 C20,11.4477153 19.5522847,11 19,11 Z" id="&#24418;&#29366;" fill-rule="nonzero" />
    </g>
</svg>

<svg xmlns="http://www.w3.org/2000/svg" viewBox="0 0 32 32"><path fill="currentColor" d="M16 2c3.959.104 7.256 1.474 9.891 4.109S29.896 12.041 30 16c-.104 3.959-1.474 7.256-4.109 9.891S19.959 29.896 16 30c-3.959-.104-7.256-1.474-9.891-4.109S2.104 19.959 2 16c.104-3.959 1.474-7.256 4.109-9.891S12.041 2.104 16 2m-3 9a1 1 0 0 0-1 1v8a1 1 0 0 0 2 0v-8a1 1 0 0 0-1-1m6 0a1 1 0 0 0-1 1v8a1 1 0 0 0 2 0v-8a1 1 0 0 0-1-1"/></svg>
